X:1
T:Burdett, 11.11.11.11
T:Burdett, 11.11.11.11
T:George Albert  Burdett, 1911
T:Public Domain Courtesy of the Cyber Hymnal™
C:George Albert  Burdett, 1911
Z:Public Domain
Z:Courtesy of the Cyber Hymnal™
%%score ( 1 2 ) ( 3 4 )
L:1/8
Q:1/4=115
M:3/4
K:Eb
V:1 treble 
V:2 treble 
V:3 bass 
V:4 bass 
V:1
 [Ec]2 | [DB]2 [CG]2 [CA]2 | G2 E2 [CF]2 | E2 C2 [=B,D]2 | C4 [Ec]2 | [FB]2 [EG]2 (BA) | %6
 [=B,G]2 [CE]2 (G=A) | B2 G2 [^F=A]2 | G4 [DG]2 | ([FA]>[GB]) [Ac]2 [FA]2 | %10
 ([DF]>[CE]) [DF]2 [EG]2 | ([FA]>[GB] [Ac]2) [Ae]2 | [Ad]4 [Dc]2 | [EB]2 [EG]2 (ec) | %14
 [EB]2 [EG]2 (EF) | (GB) [CG]2 [DF]2 | E4 |] %17
V:2
 x2 | x6 | C4 x2 | C4 x2 | C4 x2 | x4 C2 | x4 C2 | D4 x2 | G4 x2 | x6 | x6 | x6 | x6 | x4 E2 | %14
 x4 E2 | E2 x4 | E4 |] %17
V:3
 [C,G,]2 | F,2 E,2 F,2 | G,4 [A,,F,]2 | G,2 E,2 [G,,F,]2 | [C,E,]4 [C,G,]2 | [D,F,]2 [E,B,]2 F,2 | %6
 [D,F,]2 [C,G,]2 [E,G,]2 | G,2 B,2 [D,C]2 | [G,B,]4 [G,B,]2 | [F,C]2 [F,A,]2 [F,C]2 | %10
 [B,,A,]2 [A,B,]2 [G,B,]2 | (C2 A,>B,) [F,C]2 | [B,F]4 [A,B,]2 | [G,B,]2 [E,B,]2 C2 | %14
 [G,B,]2 [E,B,]2 (G,=A,) | (B,G,) [B,,B,]2 [B,,A,]2 | [E,,E,G,]4 |] %17
V:4
 x2 | C,4 F,2 | E,2 C,2 x2 | G,,4 x2 | x6 | x4 F,2 | x6 | D,4 x2 | x6 | x6 | x6 | F,4 x2 | x6 | %13
 x4 (CA,) | x4 C,2 | B,,2 x4 | x4 |] %17

